X:1
T:How Great Thou Art (#19)
C:Words & Music:  Carl G. Boberg and R.J. Hughes
M:4/4
L:1/8
K:D
V:1 
|"^Verses"A"A7"AA|"D"F3 A AA"G"BB|G2 B2-BB"G#dim"BB
w:1~O Lord my God! When I in awe-some won-der_ Con-si-der
w:2~When through the woods and for-est glades I wan-der_ And hear the
w:3~And when I think that God, His Son not spar-int,_ Sent Him to
w:4~When Christ shall come with shout of ac-cla-ma-tion,_ And take me
|"D/A"A3 F AA"A7"GG|"D"A4-AA"A7"AA|"D"F3 A AA"G"BB
w:all the world's Thy hands have made;_ I see the stars, I hear the rol-ling
w:birds sing sweet-ly in the trees;_ When I look down from lof-ty moun-tain
w:die, I scarce can take it in;_ That on the cross my bur-den glad-ly
w:home, what joy shall fill my heart!_ Then I shall bow in hum-ble a-do-
|"G"G2 B2-BB"G#dim"BB|"D/A"A3 F AA"A7"GG|"D"A4-A|
w:thun-der,_ The pow'r through-out the u-ni-verse dis-played._
w:gran-deur,_ And hear the brook and feel the gen-tle breeze._
w:bear-ing,_ He bled and died to take a-way my sin._
w:ra-tion,_ And there pro-claim my God how great Thou art!_
V:2 
|fff|d3 f gdgg|d2 g2-ggg^e
|f3 d ffec|d4-dfff|d3 f gdgg
|d2 G2-GGG^e|f3 d ffec|d4-d||
V:1 
|"D"A"^Chorus"Ad|"D"f3 e "G"dcdB|"D"A4-Addc
w:Then sings my soul, my sav-ior God to Thee,_ How great thou
|"A7"E4-EGBA|"D"F4-FAAd|f3 e "G"dcdB
w:art_ how great thou art!_ Then sings my soul, my sav-ior God to
|"D"A4-Adcd|"Em"e4-"A7"efgc|"D"d4-"^DC"d||
w:Thee,_ How great Thou art,_ How great Thou art._
V:2 
|fff|a3 =c' b^abg|a4-aaag
|c4-cegf|d4-dfff|a3 =c' b^abg
|f4-ffgf|g4-gabg|a4-a||

